assets/img/icons/pay-spb.svg

<svg width="34" height="34" viewBox="0 0 34 34" fill="none" xmlns="http://www.w3.org/2000/svg">
<path d="M6.79477 7.54633C7.54236 8.98162 8.40932 10.3681 9.13107 11.808C9.10799 12.7089 9.15445 13.6087 9.16183 14.506C9.16952 15.4352 9.16183 16.3665 9.16183 17.2961V17.4186C8.36225 16.9294 7.56358 16.4356 6.764 15.9468V7.51562H6.79477V7.54633Z" fill="white"/>
<path d="M6.76337 15.9473C7.56296 16.4361 8.36162 16.9296 9.16121 17.4191C11.4271 18.8059 13.6895 20.2012 15.9548 21.5889H11.3744C10.6401 21.1341 9.89834 20.6898 9.16121 20.2399C8.36654 19.7547 7.55404 19.2827 6.76337 18.7988C6.01209 18.3388 5.24819 17.8533 4.4886 17.3884C3.78408 16.9576 3.09863 16.4868 2.36766 16.1008C1.5853 14.6775 0.75464 13.2757 0.000587463 11.8389C2.25475 13.2078 4.51321 14.5719 6.76337 15.9473Z" fill="white"/>
<path d="M33.9995 15.8411V20.6853H32.2933C32.2899 20.6853 32.2471 20.6426 32.2471 20.6392V17.3126H30.6178V20.6853H28.8657V15.8869C28.8657 15.8835 28.9085 15.8408 28.9119 15.8408H33.9995V15.8411Z" fill="white"/>
<path d="M0.000587463 11.8389C0.75464 13.2754 1.5853 14.6775 2.36765 16.1005V18.6453C1.59022 20.0716 0.757717 21.4725 0.000587463 22.9072V11.8389Z" fill="white"/>
<path d="M15.9554 21.5889L6.79478 27.1998L9.16184 22.9382C9.9119 22.511 10.657 22.0676 11.3751 21.5892H15.9554V21.5889Z" fill="white"/>
<path d="M15.8942 13.0954L11.4369 13.1568H11.3754L9.13139 11.8078C8.40933 10.3676 7.54268 8.98118 6.79478 7.5459C9.82206 9.40311 12.8847 11.209 15.8939 13.0954H15.8942Z" fill="white"/>
<path d="M9.16183 20.2399V22.9379L6.79477 27.1996L6.764 18.7988C7.55466 19.2828 8.36686 19.7548 9.16183 20.2399Z" fill="white"/>
<path d="M21.238 17.2483C20.9218 17.1608 20.6132 16.9747 20.2739 16.9462C18.3609 16.7853 18.3892 19.4829 20.2397 19.3331C20.5658 19.3067 20.8796 19.1857 21.182 19.0739L21.8269 20.2562C20.3588 21.108 17.9905 20.7312 17.4222 18.9624C16.643 16.5371 19.3238 14.8559 21.4383 15.7541C21.5217 15.7894 21.8869 15.9595 21.8887 16.0397L21.2383 17.248L21.238 17.2483Z" fill="white"/>
<path d="M11.4354 13.1576C12.8746 13.1695 14.3153 13.1419 15.7548 13.157C15.8068 13.1576 15.8914 13.1373 15.9234 13.1883C13.7548 14.5007 11.6003 15.8384 9.43476 17.1563C9.34862 17.2089 9.26063 17.2733 9.16064 17.297C9.16064 16.3675 9.16834 15.4361 9.16064 14.5069L11.3739 13.1579H11.4354V13.1576Z" fill="white"/>
<path d="M6.76327 18.7981L0.000488281 22.9065C0.757618 21.4718 1.59012 20.0709 2.36756 18.6449C3.09607 18.2715 3.76921 17.7835 4.4885 17.3877C5.24809 17.8526 6.01199 18.3381 6.76327 18.7981Z" fill="white"/>
<path d="M15.8943 13.096C15.9204 13.1126 15.9552 13.1249 15.9866 13.127L15.925 13.1878C15.893 13.1372 15.8084 13.1571 15.7564 13.1565C14.3169 13.1415 12.8762 13.1688 11.437 13.1571L15.8943 13.0957V13.096Z" fill="white"/>
<path d="M27.2305 15.4062C26.6906 15.4542 26.095 15.3643 25.5615 15.4131C24.9081 15.473 24.2823 16.0692 24.1934 16.7168C24.186 16.771 24.1816 16.7651 24.2236 16.7461C24.3331 16.6967 24.4771 16.5521 24.6025 16.4805C25.8697 15.7558 27.6208 16.3117 27.9648 17.7979C28.4663 19.9652 26.5021 21.2506 24.5312 20.7627C21.532 20.0199 22.0776 14.2351 25.3447 14.001L27.9727 13.9727L27.2305 15.4062ZM25.5234 19.5127C26.6373 19.3605 26.6492 17.2575 25.1396 17.4746C24.0032 17.6383 24.1202 19.7037 25.5234 19.5127Z" fill="white"/>
</svg>

<svg width="34" height="34" fill="none" xmlns="http://www.w3.org/2000/svg"><path d="M6.795 7.546c.747 1.436 1.614 2.822 2.336 4.262-.023.9.023 1.8.03 2.698.009.93 0 1.86 0 2.79v.123c-.799-.49-1.597-.983-2.397-1.472V7.516h.03v.03Z" fill="#fff"/><path d="M6.763 15.947c.8.49 1.599.983 2.398 1.472 2.266 1.387 4.529 2.782 6.794 4.17h-4.58c-.735-.455-1.477-.9-2.214-1.35-.794-.484-1.607-.956-2.398-1.44-.75-.46-1.515-.946-2.274-1.41-.705-.431-1.39-.902-2.121-1.288C1.585 14.678.755 13.276 0 11.839c2.254 1.369 4.512 2.733 6.762 4.108ZM34 15.841v4.844h-1.707a.296.296 0 0 1-.046-.046v-3.326h-1.63v3.372h-1.751v-4.798c0-.004.043-.046.046-.046h5.087Z" fill="#fff"/><path d="M0 11.839c.755 1.436 1.585 2.838 2.368 4.261v2.545C1.59 20.072.758 21.473 0 22.907V11.84Zm15.955 9.75-9.16 5.61 2.367-4.26c.75-.428 1.495-.871 2.213-1.35h4.58Zm-.061-8.494-4.457.062h-.062l-2.244-1.35c-.722-1.44-1.588-2.826-2.336-4.261 3.027 1.857 6.09 3.663 9.099 5.55Z" fill="#fff"/><path d="M9.162 20.24v2.698L6.795 27.2l-.031-8.401c.79.484 1.603.956 2.398 1.44Zm12.076-2.992c-.316-.087-.625-.273-.964-.302-1.913-.16-1.885 2.537-.034 2.387.326-.026.64-.147.942-.26l.645 1.183c-1.468.852-3.837.475-4.405-1.294-.779-2.425 1.902-4.106 4.016-3.208.084.035.449.206.45.286l-.65 1.208Zm-9.803-4.09c1.44.011 2.88-.016 4.32-.001.052 0 .136-.02.168.031-2.168 1.313-4.323 2.65-6.488 3.968-.086.053-.174.117-.274.141 0-.93.007-1.86 0-2.79l2.213-1.35h.061Zm-4.672 5.64L0 22.907c.758-1.435 1.59-2.836 2.368-4.262.728-.373 1.401-.861 2.12-1.257.76.465 1.524.95 2.275 1.41Z" fill="#fff"/><path d="M15.894 13.096a.202.202 0 0 0 .093.031l-.062.06c-.032-.05-.117-.03-.169-.03-1.44-.015-2.88.012-4.319 0l4.457-.061Zm11.336 2.31c-.54.048-1.135-.042-1.669.007-.653.06-1.279.656-1.368 1.304-.007.054-.011.048.03.03.11-.05.254-.195.38-.267 1.267-.724 3.018-.168 3.362 1.318.501 2.167-1.463 3.453-3.434 2.965-2.999-.743-2.453-6.528.814-6.762l2.628-.028-.742 1.433Zm-1.707 4.107c1.114-.153 1.126-2.256-.383-2.038-1.137.163-1.02 2.229.383 2.038Z" fill="#fff"/></svg>
